usr/share/icons/Ambiant/actions/24/object-rotate-left.svg

<?xml version="1.0" encoding="UTF-8" standalone="no"?>
<!-- Created with Inkscape (http://www.inkscape.org/) -->
<svg
   xmlns:svg="http://www.w3.org/2000/svg"
   xmlns="http://www.w3.org/2000/svg"
   xmlns:xlink="http://www.w3.org/1999/xlink"
   version="1.0"
   width="24"
   height="24"
   id="svg3273">
  <defs
     id="defs3275">
    <linearGradient
       id="linearGradient8838">
      <stop
         id="stop8840"
         style="stop-color:#000000;stop-opacity:1"
         offset="0" />
      <stop
         id="stop8842"
         style="stop-color:#000000;stop-opacity:0"
         offset="1" />
    </linearGradient>
    <radialGradient
       cx="62.625"
       cy="4.625"
       r="10.625"
       fx="62.625"
       fy="4.625"
       id="radialGradient2480"
       xlink:href="#linearGradient8838"
       gradientUnits="userSpaceOnUse"
       gradientTransform="matrix(-1.0352941,0,0,0.4235288,77.028857,17.541177)" />
    <linearGradient
       id="linearGradient3390-178-986-453">
      <stop
         id="stop3624"
         style="stop-color:#688933;stop-opacity:1"
         offset="0" />
      <stop
         id="stop3626"
         style="stop-color:#4A6A17;stop-opacity:1"
         offset="1" />
    </linearGradient>
    <linearGradient
       x1="13.542197"
       y1="24"
       x2="13.542197"
       y2="-0.0023745145"
       id="linearGradient3258"
       xlink:href="#linearGradient3390-178-986-453"
       gradientUnits="userSpaceOnUse" />
    <linearGradient
       id="linearGradient7012-661-145-733-759-865-745-661-970-94">
      <stop
         id="stop3618"
         style="stop-color:#ADC980;stop-opacity:1"
         offset="0" />
      <stop
         id="stop2449"
         style="stop-color:#87A752;stop-opacity:1"
         offset="0.5" />
      <stop
         id="stop3620"
         style="stop-color:#688933;stop-opacity:1"
         offset="1" />
    </linearGradient>
    <linearGradient
       x1="20.137201"
       y1="4.4757133"
       x2="16.597107"
       y2="17.94278"
       id="linearGradient2477"
       xlink:href="#linearGradient7012-661-145-733-759-865-745-661-970-94"
       gradientUnits="userSpaceOnUse"
       gradientTransform="matrix(-0.3446423,-0.3446422,-0.3381098,0.3381098,27.882197,14.32142)" />
    <linearGradient
       id="linearGradient3267">
      <stop
         id="stop3269"
         style="stop-color:#688933;stop-opacity:1"
         offset="0" />
      <stop
         id="stop3271"
         style="stop-color:#4A6A17;stop-opacity:0"
         offset="1" />
    </linearGradient>
    <linearGradient
       x1="33.686768"
       y1="35.773647"
       x2="37.039948"
       y2="29.856804"
       id="linearGradient2474"
       xlink:href="#linearGradient3267"
       gradientUnits="userSpaceOnUse"
       gradientTransform="matrix(-0.5097808,3.067969e-2,3.009813e-2,0.5001183,22.774393,0.5062031)" />
    <linearGradient
       id="linearGradient3260">
      <stop
         id="stop3262"
         style="stop-color:#688933;stop-opacity:1"
         offset="0" />
      <stop
         id="stop3264"
         style="stop-color:#4A6A17;stop-opacity:0"
         offset="1" />
    </linearGradient>
    <linearGradient
       x1="31.226292"
       y1="34.600941"
       x2="34.96563"
       y2="26.842505"
       id="linearGradient2472"
       xlink:href="#linearGradient3260"
       gradientUnits="userSpaceOnUse"
       gradientTransform="matrix(-0.5097808,3.067969e-2,3.009813e-2,0.5001183,22.774393,0.5062031)" />
    <linearGradient
       id="linearGradient4873">
      <stop
         id="stop4875"
         style="stop-color:#ffffff;stop-opacity:1"
         offset="0" />
      <stop
         id="stop4877"
         style="stop-color:#ffffff;stop-opacity:0"
         offset="1" />
    </linearGradient>
    <linearGradient
       x1="32.325527"
       y1="5.0201149"
       x2="22.245434"
       y2="43.366352"
       id="linearGradient2469"
       xlink:href="#linearGradient4873"
       gradientUnits="userSpaceOnUse"
       gradientTransform="matrix(-0.3446423,-0.3446422,-0.3381098,0.3381098,27.882197,14.32142)" />
    <linearGradient
       id="linearGradient3319">
      <stop
         id="stop3321"
         style="stop-color:#ffffff;stop-opacity:0"
         offset="0" />
      <stop
         id="stop3323"
         style="stop-color:#ffffff;stop-opacity:0.27472529"
         offset="0.63129705" />
      <stop
         id="stop3325"
         style="stop-color:#ffffff;stop-opacity:0"
         offset="1" />
    </linearGradient>
    <linearGradient
       x1="28.116938"
       y1="41.67448"
       x2="39.686337"
       y2="28.50532"
       id="linearGradient2466"
       xlink:href="#linearGradient3319"
       gradientUnits="userSpaceOnUse"
       gradientTransform="matrix(-0.4865175,2.927958e-2,2.872474e-2,0.4772959,22.715721,1.9626372)" />
  </defs>
  <g
     id="layer1">
    <path
       d="M 1.1935642,19.5 C 1.1935642,21.985282 6.1184323,24 12.193564,24 C 18.268696,24 23.193564,21.985282 23.193564,19.5 C 23.193564,17.014719 18.268696,15 12.193564,15 C 6.1184323,15 1.1935642,17.014719 1.1935642,19.5 L 1.1935642,19.5 z"
       id="path8836"
       style="opacity:0.3;fill:url(#radialGradient2480);fill-opacity:1;fill-rule:evenodd;stroke:none;stroke-width:0.99999988;marker:none;visibility:visible;display:inline;overflow:visible" />
    <path
       d="M 11.698155,18.816592 C 12.826883,18.882462 14.557207,18.473459 15.604271,17.426396 C 17.352104,15.678563 17.763094,11.53924 15.622151,9.4637811 C 14.755287,8.6234322 12.696644,7.5328709 11.503308,7.4999998 L 11.490364,10.5 L 5.393207,5.6907158 C 5.393207,5.6907158 11.490364,0.4999993 11.490364,0.4999993 L 11.504404,3.3225711 C 14.134508,3.3707091 16.625718,4.2422142 18.623433,6.1972466 C 22.687418,10.174402 22.680893,16.594127 18.79846,20.565462 C 16.813008,22.596377 14.212314,23.564617 11.601358,23.49403"
       id="path3372"
       style="fill:url(#linearGradient2477);fill-opacity:1;stroke:url(#linearGradient3258);stroke-width:1.00474763;stroke-linecap:butt;stroke-linejoin:round;stroke-miterlimit:4;stroke-dasharray:none;stroke-opacity:1" />
    <path
       d="M 12.054925,23.462866 C 7.31189,23.799746 1.674531,20.503319 1.30881,14.28399 L 5.677657,14.859911 C 5.922856,17.391175 9.556863,19.176226 11.751356,18.86624"
       id="path3453"
       style="fill:url(#linearGradient2472);fill-opacity:1;stroke:url(#linearGradient2474);stroke-width:1.00474763;stroke-linecap:butt;stroke-linejoin:miter;stroke-miterlimit:4;stroke-dasharray:none;stroke-opacity:1" />
    <path
       d="M 11.691577,19.966046 C 13.138048,19.978946 15.176174,19.256693 16.2796,18.165281 C 18.85847,15.610922 18.688856,10.798158 16.30944,8.6058922 C 15.30536,7.6807819 13.750227,6.5571461 10.5,6.5571461 L 10.5,8.4832001 L 6.80742,5.6907158 C 6.80742,5.6907158 10.5,2.5663261 10.5,2.5663261 L 10.5,4.4103831 C 13.178814,4.289772 15.977585,4.9613854 17.978441,6.9622413 C 21.655009,10.63881 21.448481,16.5055 18.055661,19.898323 C 15.907817,22.046166 13.654837,22.623857 11.609875,22.470665"
       id="path3370"
       style="opacity:0.4;fill:none;stroke:url(#linearGradient2469);stroke-width:1.00474763;stroke-linecap:butt;stroke-linejoin:miter;stroke-miterlimit:4;stroke-dasharray:none;stroke-opacity:1" />
    <path
       d="M 11.153512,22.343807 C 8.482038,22.510005 2.775107,20.279341 2.411248,14.233355 L 3.945532,13.946832 C 4.117904,16.810977 8.225411,19.932661 11.331953,19.998604"
       id="path2557"
       style="fill:none;stroke:url(#linearGradient2466);stroke-width:1.00474763;stroke-linecap:butt;stroke-linejoin:round;stroke-miterlimit:4;stroke-dasharray:none;stroke-opacity:1" />
    <path
       d="M 10.336139,13.821288 C 10.336139,14.472272 10.863866,15 11.51485,15 C 12.165835,15 12.693562,14.472272 12.693562,13.821288 C 12.693562,13.170304 12.165835,12.642577 11.51485,12.642577 C 10.863866,12.642577 10.336139,13.170304 10.336139,13.821288 L 10.336139,13.821288 z"
       id="path3347"
       style="fill:#87A752;fill-opacity:1;stroke:#688933;stroke-width:1;stroke-linecap:round;stroke-linejoin:round;stroke-miterlimit:4;stroke-dasharray:none;stroke-dashoffset:0;stroke-opacity:1" />
  </g>
</svg>

<?xml version="1.0" encoding="UTF-8"?>
<!-- Created with Inkscape (http://www.inkscape.org/) -->
<svg id="svg3273" width="24" height="24" version="1.0" xmlns="http://www.w3.org/2000/svg" xmlns:xlink="http://www.w3.org/1999/xlink">
 <defs id="defs3275">
  <radialGradient id="radialGradient2480" cx="62.625" cy="4.625" r="10.625" gradientTransform="matrix(-1.0353 0 0 .42353 77.029 17.541)" gradientUnits="userSpaceOnUse">
   <stop id="stop8840" offset="0"/>
   <stop id="stop8842" style="stop-opacity:0" offset="1"/>
  </radialGradient>
  <linearGradient id="linearGradient3258" x1="13.542" x2="13.542" y1="24" y2="-.0023745" gradientUnits="userSpaceOnUse">
   <stop id="stop3624" style="stop-color:#bb2b12" offset="0"/>
   <stop id="stop3626" style="stop-color:#cd7233" offset="1"/>
  </linearGradient>
  <linearGradient id="linearGradient2477" x1="20.137" x2="16.597" y1="4.4757" y2="17.943" gradientTransform="matrix(-.34464 -.34464 -.33811 .33811 27.882 14.321)" gradientUnits="userSpaceOnUse">
   <stop id="stop3618" style="stop-color:#f0c178" offset="0"/>
   <stop id="stop2449" style="stop-color:#e18941" offset=".5"/>
   <stop id="stop3620" style="stop-color:#ec4f18" offset="1"/>
  </linearGradient>
  <linearGradient id="linearGradient2474" x1="33.687" x2="37.04" y1="35.774" y2="29.857" gradientTransform="matrix(-.50978 .03068 .030098 .50012 22.774 .5062)" gradientUnits="userSpaceOnUse">
   <stop id="stop3269" style="stop-color:#be3918" offset="0"/>
   <stop id="stop3271" style="stop-color:#bf8407;stop-opacity:0" offset="1"/>
  </linearGradient>
  <linearGradient id="linearGradient2472" x1="31.226" x2="34.966" y1="34.601" y2="26.843" gradientTransform="matrix(-.50978 .03068 .030098 .50012 22.774 .5062)" gradientUnits="userSpaceOnUse">
   <stop id="stop3262" style="stop-color:#ec4f18" offset="0"/>
   <stop id="stop3264" style="stop-color:#cc9110;stop-opacity:0" offset="1"/>
  </linearGradient>
  <linearGradient id="linearGradient2469" x1="32.326" x2="22.245" y1="5.0201" y2="43.366" gradientTransform="matrix(-.34464 -.34464 -.33811 .33811 27.882 14.321)" gradientUnits="userSpaceOnUse">
   <stop id="stop4875" style="stop-color:#fff" offset="0"/>
   <stop id="stop4877" style="stop-color:#fff;stop-opacity:0" offset="1"/>
  </linearGradient>
  <linearGradient id="linearGradient2466" x1="28.117" x2="39.686" y1="41.674" y2="28.505" gradientTransform="matrix(-.48652 .02928 .028725 .4773 22.716 1.9626)" gradientUnits="userSpaceOnUse">
   <stop id="stop3321" style="stop-color:#fff;stop-opacity:0" offset="0"/>
   <stop id="stop3323" style="stop-color:#fff;stop-opacity:.27473" offset=".6313"/>
   <stop id="stop3325" style="stop-color:#fff;stop-opacity:0" offset="1"/>
  </linearGradient>
 </defs>
 <g id="layer1">
  <path id="path8836" d="m1.1936 19.5c0 2.4853 4.9249 4.5 11 4.5 6.0751 0 11-2.0147 11-4.5 0-2.4853-4.9249-4.5-11-4.5-6.0751 0-11 2.0147-11 4.5z" style="fill-rule:evenodd;fill:url(#radialGradient2480);opacity:.3"/>
  <path id="path3372" d="m11.698 18.817c1.1287 0.06587 2.8591-0.34313 3.9061-1.3902 1.7478-1.7478 2.1588-5.8872 0.01788-7.9626-0.86686-0.84035-2.9255-1.9309-4.1188-1.9638l-0.012944 3-6.0972-4.8093 6.0972-5.1907 0.01404 2.8226c2.6301 0.048138 5.1213 0.91964 7.119 2.8747 4.064 3.9772 4.0575 10.397 0.17503 14.368-1.9855 2.0309-4.5861 2.9992-7.1971 2.9286" style="fill:url(#linearGradient2477);stroke-linejoin:round;stroke-width:1.0047;stroke:url(#linearGradient3258)"/>
  <path id="path3453" d="m12.055 23.463c-4.743 0.33688-10.38-2.9595-10.746-9.1789l4.3688 0.57592c0.2452 2.5313 3.8792 4.3163 6.0737 4.0063" style="fill:url(#linearGradient2472);stroke-width:1.0047;stroke:url(#linearGradient2474)"/>
  <path id="path3370" d="m11.692 19.966c1.4465 0.0129 3.4846-0.70935 4.588-1.8008 2.5789-2.5544 2.4093-7.3671 0.02984-9.5594-1.0041-0.92511-2.5592-2.0487-5.8094-2.0487v1.9261l-3.6926-2.7925 3.6926-3.1244v1.8441c2.6788-0.12061 5.4776 0.551 7.4784 2.5519 3.6766 3.6766 3.47 9.5433 0.07722 12.936-2.1478 2.1478-4.4008 2.7255-6.4458 2.5723" style="fill:none;opacity:.4;stroke-width:1.0047;stroke:url(#linearGradient2469)"/>
  <path id="path2557" d="m11.154 22.344c-2.6715 0.1662-8.3784-2.0645-8.7423-8.1105l1.5343-0.28652c0.17237 2.8641 4.2799 5.9858 7.3864 6.0518" style="fill:none;stroke-linejoin:round;stroke-width:1.0047;stroke:url(#linearGradient2466)"/>
  <path id="path3347" d="m10.336 13.821c0 0.65098 0.52773 1.1787 1.1787 1.1787 0.65098 0 1.1787-0.52773 1.1787-1.1787s-0.52773-1.1787-1.1787-1.1787c-0.65098 0-1.1787 0.52773-1.1787 1.1787v0z" style="fill:#e37b37;stroke-linecap:round;stroke-linejoin:round;stroke:#c24920"/>
 </g>
</svg>
